src/assets/svg/appleMusic.svg

<svg width="36" height="36" viewBox="0 0 40 40"><path d="M20 40C31.0457 40 40 31.0457 40 20C40 8.9543 31.0457 4.47165e-06 20 4.47165e-06C8.95431 4.47165e-06 -8.53819e-06 8.9543 -8.53819e-06 20C-8.53819e-06 31.0457 8.95431 40 20 40Z" fill="url(#paint0_linear_apple-music-icon-circle-mgjoem60l78)"></path><g opacity="0.192" filter="url(#filter0_f-mgjoem60l78)"><path d="M61.9713 2.26772e-07C45.5355 0.000108324 29.7729 6.52924 18.1511 18.1511C6.52924 29.7729 0.000108324 45.5355 2.26772e-07 61.9713C0.000107682 78.407 6.52924 94.1696 18.1511 105.791C29.7729 117.413 45.5355 123.942 61.9713 123.943C78.407 123.942 94.1696 117.413 105.791 105.791C117.413 94.1696 123.942 78.407 123.943 61.9713C123.942 45.5355 117.413 29.7729 105.791 18.1511C94.1696 6.52924 78.407 0.000107682 61.9713 2.26772e-07V2.26772e-07ZM93.0307 12.2988C94.4959 12.2975 95.572 13.1197 95.9905 14.5618C96.1364 15.0642 96.1721 24.2661 96.1346 51.2079L96.0851 87.1831L95.7071 88.5248C94.4242 93.0876 91.2913 96.3176 86.8536 97.65C83.7175 98.5916 79.1347 98.9411 76.8839 98.4106C74.8804 97.9384 73.4284 97.1012 71.8394 95.5028C69.5281 93.1778 68.5033 90.8026 68.498 87.763C68.4956 86.0628 68.7969 84.7828 69.6024 83.0752C70.7413 80.6608 72.2152 79.2073 74.8689 77.8807C76.9938 76.8185 78.8933 76.2679 84.4429 75.1087C88.0903 74.3468 88.9785 74.02 89.6894 73.1752C90.6669 72.0135 90.6454 72.445 90.5953 54.0366C90.5519 38.0433 90.5342 37.1645 90.2433 36.7205C89.8119 36.0622 88.9128 35.7224 87.9626 35.8583C86.9533 36.0025 51.0662 43.2637 50.1709 43.5047C49.176 43.7726 48.4558 44.5638 48.2244 45.6425C48.088 46.279 48.034 53.3359 48.0331 70.7126C48.0319 97.4009 48.0536 96.7956 46.9866 99.6319C46.6821 100.441 46.1363 101.556 45.7736 102.11C44.857 103.509 43.0949 105.211 41.7248 106.022C38.4476 107.961 32.0395 108.958 28.6169 108.061C24.9907 107.111 22.297 104.643 21.0827 101.159C20.5008 99.4899 20.3639 96.7434 20.7721 94.9087C21.1993 92.9886 22.1877 91.1594 23.5217 89.8193C25.8713 87.4589 28.6485 86.3616 36.1264 84.8386C37.7406 84.5098 39.4056 84.1276 39.8268 83.9894C40.7154 83.6977 41.6791 82.7819 42.1134 81.8161C42.3989 81.1813 42.4203 79.6312 42.4996 52.9689L42.5835 24.7925L42.9756 23.9965C43.4386 23.0563 44.4146 22.171 45.3992 21.7984C46.0355 21.5577 83.3052 13.9608 89.628 12.7831C91.0577 12.5167 92.5889 12.2992 93.0307 12.2988H93.0307Z" transform="translate(3.75378 3.72998) scale(0.264583)" fill="black"></path></g><path d="M69.2409 0C50.8771 0 33.2654 7.29501 20.2802 20.2802C7.29501 33.2654 0 50.8771 0 69.2409C0 87.6048 7.29501 105.216 20.2802 118.202C33.2654 131.187 50.8771 138.482 69.2409 138.482C78.3338 138.482 87.3376 136.691 95.7383 133.211C104.139 129.732 111.772 124.631 118.202 118.202C124.631 111.772 129.732 104.139 133.211 95.7383C136.691 87.3376 138.482 78.3338 138.482 69.2409C138.482 60.1481 136.691 51.1443 133.211 42.7436C129.732 34.3429 124.631 26.7098 118.202 20.2802C111.772 13.8506 104.139 8.75034 95.7383 5.27065C87.3376 1.79097 78.3338 0 69.2409 0V0ZM100.3 19.5685C101.766 19.5672 102.842 20.3894 103.26 21.8315C103.406 22.3339 103.442 31.5358 103.404 58.4776L103.355 94.4528L102.977 95.7945C101.694 100.357 98.5609 103.587 94.1232 104.92C90.9872 105.861 86.4043 106.211 84.1535 105.68C82.1501 105.208 80.698 104.371 79.1091 102.772C76.7978 100.447 75.773 98.0723 75.7677 95.0327C75.7654 93.3325 76.0666 92.0525 76.872 90.3449C78.0109 87.9305 79.4849 86.4769 82.1386 85.1504C84.2635 84.0882 86.163 83.5375 91.7126 82.3783C95.36 81.6165 96.2482 81.2897 96.9591 80.4449C97.9366 79.2832 97.9151 79.7147 97.865 61.3063C97.8215 45.313 97.8039 44.4342 97.513 43.9902C97.0816 43.3319 96.1825 42.9921 95.2323 43.128C94.2229 43.2722 58.3358 50.5333 57.4406 50.7744C56.4456 51.0423 55.7254 51.8335 55.4941 52.9122C55.3576 53.5487 55.3037 60.6056 55.3028 77.9823C55.3016 104.671 55.3233 104.065 54.2563 106.902C53.9518 107.711 53.406 108.826 53.0433 109.38C52.1266 110.778 50.3646 112.481 48.9945 113.291C45.7172 115.23 39.3092 116.228 35.8866 115.331C32.2603 114.381 29.5667 111.912 28.3524 108.429C27.7705 106.76 27.6336 104.013 28.0417 102.178C28.4689 100.258 29.4574 98.4291 30.7913 97.089C33.1409 94.7285 35.9181 93.6313 43.3961 92.1083C45.0103 91.7795 46.6753 91.3973 47.0965 91.2591C47.985 90.9674 48.9488 90.0516 49.3831 89.0858C49.6685 88.451 49.6899 86.9009 49.7693 60.2386L49.8531 32.0622L50.2453 31.2661C50.7083 30.326 51.6843 29.4407 52.6689 29.0681C53.3051 28.8274 90.5748 21.2305 96.8976 20.0528C98.3274 19.7864 99.8585 19.5689 100.3 19.5685Z" transform="translate(1.67999 1.68018) scale(0.264583)" fill="white"></path><defs><filter id="filter0_f-mgjoem60l78" x="1.70421" y="1.68041" width="36.8923" height="36.8923" filterUnits="userSpaceOnUse" color-interpolation-filters="sRGB"><feFlood flood-opacity="0" result="BackgroundImageFix"></feFlood><feBlend mode="normal" in="SourceGraphic" in2="BackgroundImageFix" result="shape"></feBlend><feGaussianBlur stdDeviation="1.02479" result="effect1_foregroundBlur"></feGaussianBlur></filter><linearGradient id="paint0_linear_apple-music-icon-circle-mgjoem60l78" x2="1" gradientUnits="userSpaceOnUse" gradientTransform="translate(24.8821 -7.03194) scale(37.2822) rotate(52.3873)"><stop stop-color="#FF5E50"></stop><stop offset="0.249038" stop-color="#FE5C6C"></stop><stop offset="0.376518" stop-color="#E3658A"></stop><stop offset="0.496954" stop-color="#B87EB0"></stop><stop offset="0.626674" stop-color="#916CFF"></stop><stop offset="0.762798" stop-color="#70BCFB" stop-opacity="0.919192"></stop><stop offset="1" stop-color="#21C7FE"></stop></linearGradient></defs></svg>

<?xml version="1.0" encoding="UTF-8" standalone="no"?>
<svg width="36" xmlns="http://www.w3.org/2000/svg" viewBox="0 0 40 40" height="36">
 <path d="m20 40c11.046 0 20-8.954 20-20s-8.954-20-20-20c-11.046 0.0000044716-20 8.9543-20 20-0.0000085382 11.046 8.9543 20 20 20z" fill="url(#paint0_linear_apple-music-icon-circle-mgjoem60l78)"/>
 <g opacity=".192" filter="url(#filter0_f-mgjoem60l78)">
  <path d="m61.971 2.2677e-7c-16.435 0.00010809-32.198 6.5292-43.82 18.151s-18.151 27.385-18.151 43.82c0.00010768 16.436 6.5292 32.199 18.151 43.819s27.385 18.15 43.82 18.15c16.436 0 32.199-6.53 43.819-18.15s18.15-27.383 18.15-43.819c0-16.435-6.53-32.198-18.15-43.82s-27.383-18.151-43.819-18.151v2.2677e-7zm31.06 12.299c1.465-0.001 2.541 0.821 2.959 2.263 0.146 0.502 0.182 9.704 0.145 36.646l-0.05 35.975-0.378 1.342c-1.283 4.563-4.416 7.793-8.853 9.125-3.136 0.942-7.719 1.291-9.97 0.761-2.004-0.473-3.456-1.31-5.045-2.908-2.311-2.325-3.336-4.7-3.341-7.74-0.002-1.7 0.299-2.98 1.104-4.688 1.139-2.414 2.613-3.868 5.267-5.194 2.125-1.063 4.024-1.613 9.574-2.772 3.647-0.762 4.535-1.089 5.246-1.934 0.978-1.161 0.956-0.73 0.906-19.138-0.043-15.994-0.061-16.873-0.352-17.317-0.431-0.658-1.33-0.998-2.28-0.862-1.01 0.144-36.897 7.406-37.792 7.647-0.995 0.268-1.715 1.059-1.947 2.137-0.136 0.637-0.19 7.694-0.191 25.071-0.001 26.688 0.021 26.083-1.046 28.919-0.305 0.808-0.851 1.928-1.213 2.478-0.917 1.4-2.679 3.1-4.049 3.91-3.277 1.94-9.685 2.94-13.108 2.04-3.626-0.95-6.32-3.42-7.534-6.9-0.582-1.67-0.719-4.417-0.311-6.251 0.427-1.92 1.416-3.75 2.75-5.09 2.349-2.36 5.126-3.457 12.604-4.98 1.615-0.329 3.28-0.711 3.701-0.85 0.888-0.291 1.852-1.207 2.286-2.173 0.286-0.635 0.307-2.185 0.387-28.847l0.084-28.177 0.392-0.796c0.463-0.94 1.439-1.825 2.423-2.198 0.637-0.24 37.906-7.837 44.229-9.015 1.43-0.266 2.961-0.484 3.403-0.484z" transform="translate(3.7538 3.73) scale(.26458)"/>
 </g>
 <path fill="#fff" d="m69.241 0c-18.364 0-35.976 7.295-48.961 20.28s-20.28 30.597-20.28 48.961 7.295 35.979 20.28 48.959c12.985 12.99 30.597 20.28 48.961 20.28 9.093 0 18.097-1.79 26.497-5.27 8.402-3.48 16.032-8.58 22.462-15.01s11.53-14.06 15.01-22.462c3.48-8.4 5.27-17.404 5.27-26.497s-1.79-18.097-5.27-26.497c-3.48-8.401-8.58-16.034-15.01-22.464-6.43-6.429-14.06-11.53-22.462-15.009-8.4-3.48-17.404-5.271-26.497-5.271zm31.059 19.568c1.47-0.001 2.54 0.821 2.96 2.264 0.15 0.502 0.18 9.704 0.14 36.646l-0.04 35.975-0.38 1.341c-1.29 4.566-4.419 7.796-8.857 9.126-3.136 0.94-7.719 1.29-9.969 0.76-2.004-0.47-3.456-1.31-5.045-2.91-2.311-2.32-3.336-4.698-3.341-7.737-0.003-1.701 0.299-2.981 1.104-4.688 1.139-2.415 2.613-3.868 5.267-5.195 2.125-1.062 4.024-1.612 9.574-2.772 3.647-0.762 4.535-1.088 5.246-1.933 0.978-1.162 0.956-0.73 0.906-19.139-0.043-15.993-0.061-16.872-0.352-17.316-0.431-0.658-1.331-0.998-2.281-0.862-1.009 0.144-36.896 7.405-37.791 7.646-0.995 0.268-1.716 1.06-1.947 2.138-0.136 0.637-0.19 7.694-0.191 25.07-0.001 26.688 0.02 26.078-1.047 28.918-0.304 0.81-0.85 1.93-1.213 2.48-0.916 1.4-2.678 3.1-4.049 3.91-3.277 1.94-9.685 2.94-13.107 2.04-3.627-0.95-6.32-3.42-7.535-6.9-0.582-1.67-0.718-4.42-0.31-6.25 0.427-1.92 1.415-3.751 2.749-5.091 2.35-2.361 5.127-3.458 12.605-4.981 1.614-0.328 3.279-0.711 3.7-0.849 0.889-0.292 1.853-1.207 2.287-2.173 0.285-0.635 0.307-2.185 0.386-28.847l0.084-28.177 0.392-0.796c0.463-0.94 1.439-1.825 2.424-2.198 0.636-0.241 37.906-7.838 44.229-9.015 1.429-0.267 2.96-0.484 3.402-0.485z" transform="translate(1.68 1.6802) scale(.26458)"/>
 <defs>
  <filter id="filter0_f-mgjoem60l78" height="36.892" width="36.892" color-interpolation-filters="sRGB" y="1.6804" x="1.7042" filterUnits="userSpaceOnUse">
   <feFlood flood-opacity="0" result="BackgroundImageFix"/>
   <feBlend result="shape" mode="normal" in2="BackgroundImageFix" in="SourceGraphic"/>
   <feGaussianBlur stdDeviation="1.02479" result="effect1_foregroundBlur"/>
  </filter>
  <linearGradient id="paint0_linear_apple-music-icon-circle-mgjoem60l78" gradientUnits="userSpaceOnUse" gradientTransform="translate(24.882 -7.0319) scale(37.282) rotate(52.387)">
   <stop stop-color="#FF5E50" offset="0"/>
   <stop stop-color="#FE5C6C" offset=".24904"/>
   <stop stop-color="#E3658A" offset=".37652"/>
   <stop stop-color="#B87EB0" offset=".49695"/>
   <stop stop-color="#916CFF" offset=".62667"/>
   <stop stop-color="#70BCFB" stop-opacity=".91919" offset=".76280"/>
   <stop stop-color="#21C7FE" offset="1"/>
  </linearGradient>
 </defs>
</svg>
